X:0108
T:Duke of Perth/Pease Strae/Broun's Reel
P:Duke of Perth's Reel
C:Bremner 1757
R:Reel (8x32)
B:RSCDS 1-8
Z:Anselm Lingnau <anselm@strathspey.org>
M:C|
L:1/4
K:G
|:d|"G"G/A/B/c/ d B|g B d B|g B d B|"D"a A A B|
    "G"G/A/B/c/ d B|g B d B|"Am"c A "D7"d>c |"G"B G G:|
|:f|"Em"g>a g e|"B"a>b a f|"Em"g>a g e|b e e "B7"f|
    "Em"g>a g e|"D"a>b a f|"C"g d "D7"e d/c/|"G"B G G:|

